bitcoin icon/bitcoin-btc-icon.svg

<?xml version="1.0" encoding="UTF-8"?>
<!DOCTYPE svg PUBLIC "-//W3C//DTD SVG 1.1//EN" "http://www.w3.org/Graphics/SVG/1.1/DTD/svg11.dtd">
<!-- Creator: CorelDRAW 2019 (64-Bit) -->
<svg xmlns="http://www.w3.org/2000/svg" xml:space="preserve" width="100%" height="100%" version="1.1" shape-rendering="geometricPrecision" text-rendering="geometricPrecision" image-rendering="optimizeQuality" fill-rule="evenodd" clip-rule="evenodd"
viewBox="0 0 4091.27 4091.73"
 xmlns:xlink="http://www.w3.org/1999/xlink"
 xmlns:xodm="http://www.corel.com/coreldraw/odm/2003">
 <g id="Layer_x0020_1">
  <metadata id="CorelCorpID_0Corel-Layer"/>
  <g id="_1421344023328">
   <path fill="#F7931A" fill-rule="nonzero" d="M4030.06 2540.77c-273.24,1096.01 -1383.32,1763.02 -2479.46,1489.71 -1095.68,-273.24 -1762.69,-1383.39 -1489.33,-2479.31 273.12,-1096.13 1383.2,-1763.19 2479,-1489.95 1096.06,273.24 1763.03,1383.51 1489.76,2479.57l0.02 -0.02z"/>
   <path fill="white" fill-rule="nonzero" d="M2947.77 1754.38c40.72,-272.26 -166.56,-418.61 -450,-516.24l91.95 -368.8 -224.5 -55.94 -89.51 359.09c-59.02,-14.72 -119.63,-28.59 -179.87,-42.34l90.16 -361.46 -224.36 -55.94 -92 368.68c-48.84,-11.12 -96.81,-22.11 -143.35,-33.69l0.26 -1.16 -309.59 -77.31 -59.72 239.78c0,0 166.56,38.18 163.05,40.53 90.91,22.69 107.35,82.87 104.62,130.57l-104.74 420.15c6.26,1.59 14.38,3.89 23.34,7.49 -7.49,-1.86 -15.46,-3.89 -23.73,-5.87l-146.81 588.57c-11.11,27.62 -39.31,69.07 -102.87,53.33 2.25,3.26 -163.17,-40.72 -163.17,-40.72l-111.46 256.98 292.15 72.83c54.35,13.63 107.61,27.89 160.06,41.3l-92.9 373.03 224.24 55.94 92 -369.07c61.26,16.63 120.71,31.97 178.91,46.43l-91.69 367.33 224.51 55.94 92.89 -372.33c382.82,72.45 670.67,43.24 791.83,-303.02 97.63,-278.78 -4.86,-439.58 -206.26,-544.44 146.69,-33.83 257.18,-130.31 286.64,-329.61l-0.07 -0.05zm-512.93 719.26c-69.38,278.78 -538.76,128.08 -690.94,90.29l123.28 -494.2c152.17,37.99 640.17,113.17 567.67,403.91zm69.43 -723.3c-63.29,253.58 -453.96,124.75 -580.69,93.16l111.77 -448.21c126.73,31.59 534.85,90.55 468.94,355.05l-0.02 0z"/>
  </g>
 </g>
</svg>

<?xml version="1.0" encoding="utf-8"?>
<svg viewBox="0 0 4091.27 4091.73" shape-rendering="geometricPrecision" text-rendering="geometricPrecision" image-rendering="optimizeQuality" fill-rule="evenodd" clip-rule="evenodd" xmlns="http://www.w3.org/2000/svg">
  <g id="Layer_x0020_1">
    <g id="_1421344023328">
      <path fill="#F7931A" fill-rule="nonzero" d="M4030.06 2540.77c-273.24,1096.01 -1383.32,1763.02 -2479.46,1489.71 -1095.68,-273.24 -1762.69,-1383.39 -1489.33,-2479.31 273.12,-1096.13 1383.2,-1763.19 2479,-1489.95 1096.06,273.24 1763.03,1383.51 1489.76,2479.57l0.02 -0.02z"/>
      <path fill="white" fill-rule="nonzero" d="M 2947.77 1754.38 C 2988.49 1482.12 2781.21 1335.77 2497.77 1238.14 L 2589.72 869.34 L 2365.22 813.4 L 2275.71 1172.49 C 2216.69 1157.77 2156.08 1143.9 2095.84 1130.15 L 2186 768.69 L 1961.64 712.75 L 1869.64 1081.43 C 1820.8 1070.31 1772.83 1059.32 1726.29 1047.74 L 1726.55 1046.58 L 1416.96 969.27 L 1357.24 1209.05 C 1357.24 1209.05 1523.8 1247.23 1520.29 1249.58 C 1611.2 1272.27 1627.64 1332.45 1624.91 1380.15 L 1372.97 2390.49 C 1361.86 2418.11 1333.66 2459.56 1270.1 2443.82 C 1272.35 2447.08 1106.93 2403.1 1106.93 2403.1 L 995.47 2660.08 L 1287.62 2732.91 C 1341.97 2746.54 1395.23 2760.8 1447.68 2774.21 L 1354.78 3147.24 L 1579.02 3203.18 L 1671.02 2834.11 C 1732.28 2850.74 1791.73 2866.08 1849.93 2880.54 L 1758.24 3247.87 L 1982.75 3303.81 L 2075.64 2931.48 C 2458.46 3003.93 2746.31 2974.72 2867.47 2628.46 C 2965.1 2349.68 2862.61 2188.88 2661.21 2084.02 C 2807.9 2050.19 2918.39 1953.71 2947.85 1754.41 L 2947.78 1754.36 L 2947.77 1754.38 Z M 2434.84 2473.64 C 2365.46 2752.42 1896.08 2601.72 1743.9 2563.93 L 1867.18 2069.73 C 2019.35 2107.72 2507.35 2182.9 2434.85 2473.64 L 2434.84 2473.64 Z M 2504.27 1750.34 C 2440.98 2003.92 2050.31 1875.09 1923.58 1843.5 L 2035.35 1395.29 C 2162.08 1426.88 2570.2 1485.84 2504.29 1750.34 L 2504.27 1750.34 Z"/>
    </g>
  </g>
</svg>
